X:1
T:Tom Lehrer - New Math Music
T:New Math 
T:Tom Lehrer 
C:Tom Lehrer
%%score { 1 | ( 2 3 ) }
L:1/8
Q:1/4=136
M:2/4
K:C
V:1 treble nm="Piano"
V:2 bass 
V:3 bass 
V:1
 z .[CEG] z .[CEG] | z .[^CEG] z .[CEG] | z .[CDF] z .[CDF] | z .[CD] z .[B,D] | %4
 z .[CEG] z .[CEG] | z .[^CEG] z .[CEG] | z .[CD] z .[CD] | C.[EGc] z .[EGc] | z .[EGc] z .[EGc] | %9
 z .[_E^FB] z .[EFB] | z .[_E^FB] z .[EFB] | z .[B,G] z .[B,G] | z .[B,G] z .[B,G] | %13
 z .[B,G] z .[B,G] | z .[B,G] z .[B,G] | z .B, z .B, | z .[B,G] z .[B,G] | z .[A,_E] z .[A,E] | %18
 z .[EG] z .[EGB] | z .[EGB] z .[EGB] | z .[B,G] z .[B,G] | z .B, z .B, | z .G z .[GB] | %23
 z .G z .B, | z .G z .[GB] | z .[_E^FA] z .[EFA] | z .[B,EG] z .[B,EG] | z .[B,DFG] z .[B,DFG] | %28
 z .[CEG] z .[CE] | z .[CF] z .[CF] | z .[DF] z .[DFB] | C.[EGc] z .[EGc] | z .[EGc] z .[EGc] | %33
 z .[EGc] z .[EGc] |:"^Repeat as necessary" z .[CEG] z .[CEG] | z .[CEG] z .[CEG] :| %36
 z .[EGc] z .[EGc] | z .[EG_B] z .[EGB] | z .[CF] z .[CF] | z .[CF] z .[CF] | z .[CE] z .[CE] | %41
 z .[CD^F] z .[CDF] | z .[CD^F] z .[CDF] | z .[CD^F] z .[CDF] | z .[CD^F] z .[CDF] | %45
 z .[B,DF] z .[B,DF] | z .[B,DF] z .[B,DF] | z .[B,DF] z .[B,DF] | z [Ac] z [Ac] | [FA]4 | %50
 [EG][_E^F] [D=F][^C=E]- | [CE]2 z [^CE] | [DF][^CE] [DF][CE] | [DF]/[^CE][DF][CE]/[DF] | %54
 [EG]2 z2 | ^C z [DF][EG] | [FA] D2 A,- | A,[DA] [DA]2 | [_E_B] [EG]2 [EG]- | [EG]2 [_EG_B] z | %60
 G F2 G | z .[FG] z .[FG] | Bc- c2 | [B_e][c=e]- [ce]2 | [_e^f][=eg]- [eg]2 | [^fb][gc']- [gc']2 | %66
 [b_e'][c'=e']- [c'e']2 |:"^Repeat as necessary" z .[CE] z .[CE] | z .[CE] z .[CE] :| %69
 z .[CEG] z .[CEG] | z .[^CEG] z .[CEG] | z .[CDF] z .[CDF] | z .[CD] z .[B,D] | %73
 z .[CEG] z .[CEG] | z .[^CEG] z .[CEG] | z .[CDF] z .[CDF] | z .[CD] z .[B,D] | %77
 z .[CEG] z .[CEG] | z .[^CEG] z .[CEG] | z .[CDF] z .[CDF] | z .[DFG] z .[DFG] | %81
 z .[DFG] z .[DFG] | C.[EGc] z .[EGc] | z .[EGc] z .[EGc] | B,.[_E^FB] z .[EFB] | %85
 z .[_E^FB] z .[EFB] | z .[B,G] z .[B,G] | z .[B,G] z .[B,G] | z .[B,G] z .[B,G] | %89
 z .[B,G] z .[B,G] | z .B, z .B, | z .[B,G] z .[B,G] | z .[A,_E] z .[A,E] | z .[EG] z2 |: %94
"^Rest as necessary" z4 | z4 | z4 | z4 :| z .[B,G] z .[B,G] | z .[B,G] z .[B,G] | %100
 z .[B,G] z .[B,G] | z .[B,G] z .[B,G] | z .[B,G] z .[B,G] | z .[B,G] z .[B,G] | %104
 z .[A,_E] z .[DFG] | z .[CEG] z .[CEG] | z .[CEG] z .[CEG] | z .[DF] z .[DFB] | [EGc]4 | %109
 z .[EGc] z .[EGc] | z .[EG_B] z .[EGB] | z .[CF] z .[CF] | z .[CF] z .[CF] | z .[CG] z .[CG] | %114
 [D^F]2 z2 |:"^Rest as necessary" z4 | z4 | z4 | z4 :| z .[B,DF] z .[B,DF] | z .[B,DF] z .[B,DF] | %121
 z .[CEG] z .[CEG] | z .[CEG] z .[CEG] | z .[CEG] z .[CEG] | z .[CEG] z .[CEG] | %125
 z .[CEG] z .[CEG] | z4 | [Ac]4 | F4 | [EG][_E^F] [D=F][^C=E]- | [CE] ^C2 [CE] | %131
 [DF][^CE] [DF][CE] | [DF]/[^CE][DF][CE]/[DF] | [EG]2 z2 | ^C z [DF][EG] | [FA]2 D2- | %136
 D2 [DA][DA] | [_E_B] [EG]2 [EG]- | [EG]2 [_EG_B] z | [FG] F2 [FG] | z .[FG] z .[FG] | Bc- c2 | %142
 [B^d][ce]- [ce]2 | [^d^f][eg]- [eg]2 | [^fb][gc']- [gc']2 | [b^d'][c'e']- [c'e']2 | %146
 [^d'^f'][e'g'] z2 | z4 | .^g'.[b'c''] .^c'.[^f'=g'] | c''2 !~(!c'2 | z4 | %151
V:2
 G,4 | _B,4 | A,4 | ^G,2 =G,2 | G,4 | _B,4 | A,2 B,2 | C,G, G,,G, | C,G, G,,G, | ^D,^F, B,,F, | %10
 ^D,^F, B,,F, | E,G, B,,G, | _E,G, E,G, | D,G, D,G, | ^C,G, C,G, | C,G, C,G, | E,G, B,,G, | %17
 ^D,^F, B,,F, | E,G, B,,G, | E,G, B,,G, | ^D,G, D,G, | D,G, D,G, | ^C,G, C,G, | C,G, C,G, | %24
 E,G, B,,G, | ^D,^F, B,,F, | E,2 z2 | G,,D, G,,D, | C,2 G,,2 | A,,2 C,2 | F,,2 G,,2 | C,G, G,,G, | %32
 C,G, G,,G, | C,G, G,,G, |: C,G, G,,G, | C,G, G,,G, :| C,G, C,G, | _B,,G, B,,G, | A,2 A,,2 | %39
 A,2 ^G,,2 | C,G, C,G, | D,2 D,,2 | D,2 D,,2 | D,2 D,,2 | D,2 D,,2 | F,2 G,,2 | z2 G,,D, | %47
 G,,D, G,,D, | F,C C,C | F,C C,C | E,C C,2 | ^C,G, A,,G, | D,G, G,,G, | D,G, G,,G, | %54
 C,[E,G,] G,,[E,G,] | ^C,[E,G,] A,, z | D,A, A,,A, | D,A, A,,A, | _E,[G,_B,] _B,,[G,B,] | %59
 _E,[G,_B,] _B,,[G,B,] | D,G, G,,G, | D,G, G,,G, | E,[G,C] C,[G,C] | E,[G,C] C,[G,C] | %64
 E,[G,C] C,[G,C] | E,[G,C] C,[G,C] | E,[G,C] E,[G,C] |: C,G, G,,G, | C,G, G,,G, :| G,4 | _B,4 | %71
 A,4 | ^G,2 =G,2 | G,4 | _B,4 | A,4 | ^G,2 =G,2 | G,4 | _B,4 | A,4 | B,,D, G,,D, | B,,D, G,,D, | %82
 C,G, G,,G, | C,G, G,,G, | ^D,^F, B,,F, | ^D,^F, B,,F, | E,G, B,,G, | _E,G, E,G, | D,G, D,G, | %89
 ^C,G, C,G, | C,G, C,G, | E,G, B,,G, | ^D,^F, B,,F, | E,G, B,, z |: z4 | z4 | z4 | z4 :| %98
 E,G, E,G, | _E,G, E,G, | D,G, D,G, | ^C,G, C,G, | C,G, C,G, | E,G, B,,G, | _E,^F, G,,D, | %105
 C,2 G,,2 | C,2 A,,2 | G,,2 G,,2 | [C,C][G,,G,] [A,,A,][B,,B,] | .C, z .C,, z | .C, z .C,, z | %111
 .C, z .F,, z | .C, z .F,, z | .C, z .C,, z | [D,^F,A,]2 z2 |: z4 | z4 | z4 | z4 :| %119
{G,,} .D, z .G,, z | .D, z .[G,,D,] z | .C, z .G,, z | C,G, G,,G, | C,G, G,,G, | C,G, G,,G, | %125
 C,G, G,,G, | [B,,C,G,]4 | F,C C,C | F,C C,C | E,C C,2 | ^C,G, A,,G, | D,G, G,,G, | D,G, G,,G, | %133
 C,[E,G,] G,,[E,G,] | ^C,[E,G,] A,,[E,G,] | D,A, A,,A, | D,A, A,,A, | _E,[G,_B,] _B,,[G,B,] | %138
 _E,[G,_B,] _B,,[G,B,] | D,G, G,,G, | D,G, G,,G, | E,[G,C] C,[G,C] | E,[G,C] C,[G,C] | %143
 E,[G,C] C,[G,C] | E,[G,C] C,[G,C] | E,[G,C] C,[G,C] | E,[G,C] C,2 | z4 | .^G,.^C .^C,.=G, | %149
 C2 C,,2- | !~)![C,,C,]2 z2 | %151
V:3
 x4 | x4 | x4 | x4 | x4 | x4 | x4 | x4 | x4 | x4 | x4 | x4 | x4 | x4 | x4 | x4 | x4 | x4 | x4 | %19
 x4 | x4 | x4 | x4 | x4 | x4 | x4 | x4 | x4 |[I:staff -1] G,4 | A,4 | B,4 | x4 | x4 | x4 |: x4 | %35
 x4 :| x4 | x4 | x4 | x4 | x4 | x4 | x4 | x4 | x4 | x4 | x4 | x4 | x4 | x4 | x4 | x4 | x4 | x4 | %54
 x4 | x4 | x4 | x4 | x4 | x4 | x4 | x4 | x4 | x4 | x4 | x4 | x4 |: x4 | x4 :| %69
[I:staff +1] .C, z .G,, z | ._B,, z .B,, z | .A,, z .A,, z | ._A,, z .G,, z | .C, z .G,, z | %74
 ._B,, z .B,, z | .A,, z .A,, z | ._A,, z .G,, z | .C, z .G,, z | ._B,, z .B,, z | .A,, z .A,, z | %80
 x4 | x4 | x4 | x4 | x4 | x4 | x4 | x4 | x4 | x4 | x4 | x4 | x4 | x4 |: x4 | x4 | x4 | x4 :| x4 | %99
 x4 | x4 | x4 | x4 | x4 | x4 |[I:staff -1] G,4 | A,4 | B,4 | x4 |[I:staff +1] C4 | _B,4 | A,4 | %112
 ^G,4 | G,4 | x4 |: x4 | x4 | x4 | x4 :| F,4 | x4 | G,4 | x4 | x4 | x4 | x4 | x4 | x4 | x4 | x4 | %130
 x4 | x4 | x4 | x4 | x4 | x4 | x4 | x4 | x4 | x4 | x4 | x4 | x4 | x4 | x4 | x4 | x4 | x4 | x4 | %149
 x4 | x4 | %151

